X: 147
T: Li shu The fruit tree
L: 1/8
M: 2/4
K: C
A A G A [I:setbarnb 1]| 
d ec2 | 
A4- | 
A4 | 
A A G A | 
d ec2 | 
C4- | 
C4 | 
D2C A, | 
A3d | 
AG2E | 
C DE2 | 
AG2E | 
D EC2 | 
A,4- | 
A,4 |]

@@@ Tune index: 8815
